assets/img/partners/thumbs-up.svg

<svg width="41" height="41" viewBox="0 0 41 41" fill="none" xmlns="http://www.w3.org/2000/svg">
<path d="M2.86035 34.564H6.27702C7.2166 34.564 7.98535 33.7952 7.98535 32.8556V17.4806C7.98535 16.541 7.2166 15.7723 6.27702 15.7723H2.86035V34.564ZM36.7366 22.4006C36.9245 21.9735 37.027 21.5123 37.027 21.034V19.189C37.027 17.3098 35.4895 15.7723 33.6104 15.7723H24.2145L25.7862 7.82855C25.8716 7.45271 25.8204 7.04272 25.6495 6.70105C25.2566 5.9323 24.7612 5.23188 24.1462 4.61688L23.3604 3.81396L12.4099 14.7644C11.7608 15.4135 11.402 16.2848 11.402 17.1902V30.5835C11.402 32.7702 13.1958 34.564 15.3995 34.564H29.2541C30.4499 34.564 31.5774 33.9319 32.1924 32.9069L36.7366 22.4006Z" fill="#205493"/>
</svg>

<svg width="41" height="41" viewBox="0 0 41 41" fill="none" xmlns="http://www.w3.org/2000/svg"><path d="M2.86 34.564h3.417c.94 0 1.708-.769 1.708-1.708V17.48c0-.94-.768-1.709-1.708-1.709H2.86v18.792zm33.877-12.163c.188-.427.29-.889.29-1.367v-1.845a3.427 3.427 0 00-3.417-3.417h-9.395l1.571-7.943A1.712 1.712 0 0025.65 6.7a8.201 8.201 0 00-1.503-2.084l-.786-.803-10.95 10.95a3.427 3.427 0 00-1.008 2.426v13.393c0 2.187 1.794 3.981 3.998 3.981h13.854a3.44 3.44 0 002.938-1.657L36.737 22.4z" fill="#205493"/></svg>
